X: 10302
T: DUNCAN McQUEEN'S STRATHSPEY
%R: strathspey
B: W. Hamilton "Universal Tune-Book" Vol. 1 Glasgow 1844 p.30 #2
S: http://imslp.org/wiki/Hamilton's_Universal_Tune-Book_(Various)
Z: 2016 John Chambers <jc:trillian.mit.edu>
M: C
L: 1/8
K: A
% - - - - - - - - - - - - - - - - - - - - - - - - -
|:\
E<AA>B (cA).A.e | e>dd>c (BG)G2 |\
E<AA<B (cA).A.e | e>cde cAA2 ::\
e>cAe c<Ae>c | d>edc (BG)G(c/d/) |
e>cAe c<Ae>c | d>fed (cA)A2 ::\
A>a.a.g gaa2 | G>ggd dgg2 |\
A>aag g>a a(b/a/) | g(e/f/) (e/d/)(c/B/) A2A>g |\
(3(aba) (3(gag) (3(ege) c>e |
(3(ege) (dec) B>GGc |\
E>Ac>d e>cda | g>ed>e c<AA2 ::\
G>cE>c G>cE(c/d/) | ecdc B<GGc |\
G>cE>c G>cE(c/d/) | e>cde c<AA2 :|
% - - - - - - - - - - - - - - - - - - - - - - - - -

%%sep 1 1 500
%%sep 1 1 500

